src/16/actions/reply-all-rtl.svg

<svg xmlns="http://www.w3.org/2000/svg" width="16" height="16" viewBox="0 0 16 16">
 <defs>
  <style id="current-color-scheme" type="text/css">
   .ColorScheme-Text { color:#5d656b; } .ColorScheme-Highlight { color:#5294e2; }
  </style>
 </defs>
 <path style="fill:currentColor" class="ColorScheme-Text" d="M 9.5 1.5 L 9.5 2.5429688 L 14.470703 6 L 9.5 9.4570312 L 9.5 10.5 L 15.970703 6 L 9.5 1.5 z M 6 1.5039062 L 6 4.0039062 L 5 4.0039062 C 2 4.0039062 0 6.1304062 0 9.2539062 C 0 12.503906 4 14.003906 4 14.003906 C 4 14.003906 2.1249 11.351406 2.5625 10.003906 C 2.92839 8.8773063 4.1351 8.0039062 5.5 8.0039062 L 6 8.0039062 L 6 10.503906 L 12.46875 6.0039062 L 6 1.5039062 z"/>
</svg>

<svg xmlns="http://www.w3.org/2000/svg" width="16" height="16"><defs><style id="current-color-scheme" type="text/css"></style></defs><path d="M9.5 1.5v1.043L14.47 6 9.5 9.457V10.5L15.97 6 9.5 1.5zM6 1.504v2.5H5c-3 0-5 2.126-5 5.25 0 3.25 4 4.75 4 4.75s-1.875-2.653-1.438-4c.366-1.127 1.573-2 2.938-2H6v2.5l6.469-4.5L6 1.504z" fill="currentColor" color="#5d656b"/></svg>
